packages/core/src/svgs/tokens/branded/AQT.svg

<svg width="24" height="24" viewBox="0 0 24 24" fill="none" xmlns="http://www.w3.org/2000/svg">
<path fill-rule="evenodd" clip-rule="evenodd" d="M21.542 20.224C21.9359 20.8907 21.542 22 20.8327 22C20.0023 22 19.8265 21.7818 19.6265 21.5333L19.5113 21.3999L16.1047 14.6837C15.664 13.985 15.0427 13.4184 14.3065 13.0439C13.5702 12.6694 12.7465 12.5008 11.9222 12.5561C9.01263 12.7076 7.93972 14.1139 6.6001 17.0355V17.2296C7.46065 17.0191 8.34521 16.9234 9.23088 16.9446C11.0674 16.9446 14.0013 18.2539 14.765 20.2967C14.9469 20.7817 14.7711 21.3514 14.4802 21.5818C14.1166 21.8788 13.5345 22.1212 12.8556 21.6666C12.692 21.5576 12.5284 21.3574 12.3284 21.115C11.6919 20.3452 10.728 19.1693 8.4489 19.3207C6.06668 19.4844 4.73919 20.8968 4.3755 21.5818C4.23642 21.7412 4.05807 21.8614 3.85816 21.9306C3.65824 21.9996 3.44372 22.0153 3.23591 21.9758C2.52064 21.8364 2.17513 21.315 2.34485 20.5937C2.44184 20.2057 5.31504 14.2653 8.10338 8.47658L10.9766 2.5362C11.0539 2.37703 11.1739 2.24253 11.3233 2.14783C11.4728 2.05312 11.6456 2.00195 11.8226 2.00005C11.9995 1.99817 12.1735 2.04564 12.325 2.13714C12.4763 2.22863 12.5992 2.36052 12.6798 2.51801L21.542 20.2179V20.224ZM9.70965 10.6891L11.904 5.9307L14.1286 10.6891C13.5952 10.5194 11.9585 10.2768 9.70965 10.6891Z" fill="#FC452D"/>
</svg>

<svg xmlns="http://www.w3.org/2000/svg" width="24" height="24" fill="none" viewBox="0 0 24 24">
    <path fill="#FC452D" fill-rule="evenodd" d="M21.542 20.224c.394.667 0 1.776-.71 1.776-.83 0-1.006-.218-1.206-.467l-.115-.133-3.406-6.716a4.58 4.58 0 0 0-4.183-2.128c-2.91.152-3.982 1.558-5.322 4.48v.194a10 10 0 0 1 2.63-.285c1.837 0 4.771 1.309 5.535 3.352.182.485.006 1.054-.285 1.285-.363.297-.946.54-1.624.085-.164-.11-.328-.31-.528-.552-.636-.77-1.6-1.946-3.88-1.794-2.381.163-3.709 1.576-4.073 2.26a1.21 1.21 0 0 1-1.14.395c-.714-.14-1.06-.661-.89-1.382.097-.388 2.97-6.329 5.758-12.117l2.874-5.94a.952.952 0 0 1 1.703-.019l8.862 17.7zM9.71 10.689l2.194-4.758 2.225 4.758c-.534-.17-2.17-.412-4.42 0" clip-rule="evenodd"/>
</svg>
